!!!!SEGMENT:Minaai.krn
!!!OTL:水合
!!!OPR:Eiga Banso Kyokusyu,jidai-geki,kouhen
!!!YOY:1928
!!!ONB:Suicyu_no_rantou
**kern
*clefG2
*k[]
*C:
*M2/4
8bL
8bJ
=1
8b
8r
8b
8r
=2
8b
8r
8b
8r
=3
4b
8bL
8ddJ
=4
8eeL
8ee
8ee
8ddJ
=5
8eeL
8bJ
8BL
8ggJ
=6
8aaL
8ggJ
8eL
8eeJ
=7
8eeL
8ee
8ee
8eeJ
=8
8r
8ggL
8aa
8ggJ
=9
8eL
8eeJ
8eeL
8eeJ
=10
8eeL
8eeJ
8r
8b-X
=11
8aL
8aJ
8r
8b-X
=12
4a
8aL
8aJ
=13
4a
4a
=14
4a
4a
=15
4a
8b-XL
8aJ
=16
8gL
8gJ
8aL
8gJ
=17
4e
8r
8b-X
=18
8gL
8gJ
8aL
8gJ
=19
4e
8r
8cc
=20
8bL
8bJ
8r
8cc
=21
4b
=:|
*-
!!!ENC: Yukiko Yoden
!!!END: 2023/06/11
